X:164
T:Steirer
C:traditionell
R:Steirer
A:Bad Ischl, Salzkammergut
B:"Pfeifermusik aus Bad Ischl", Lois Blamberger, 3. Auflage, Bad Ischl 1990
S:im buch mit der Angabe: aus der Sammlung vom Blamberger Lois
N:im buch in D, nr. 6/2
Z:abc transcription Simon Wascher
M:3/4
L:1/8
K:D
V:1
(GF) |\
A2 (dfAd) | (cg) A2 (BA) | A2 (cgAc) | (df) A2 (BA) |\
A2 (dfAd) | (cg) A2 (BA) | A2 (cgAc) | d2 z2 :|
V:2
(GF) |\
F2 (AdFB) | (Ac) E2 (GG) | E2 (AcEA) | (Ed) F2 (GF) |\
F2 (AdFB) | (Ac) E2 (GG) | E2 (AcEA) | F2 z2 :|
